modules/stroke-7/icons/right-arrow.svg

<?xml version="1.0" encoding="utf-8"?>
<!-- Generated by IcoMoon.io -->
<!DOCTYPE svg PUBLIC "-//W3C//DTD SVG 1.1//EN" "http://www.w3.org/Graphics/SVG/1.1/DTD/svg11.dtd">
<svg version="1.1" xmlns="http://www.w3.org/2000/svg" xmlns:xlink="http://www.w3.org/1999/xlink" width="26" height="32" viewBox="0 0 26 32">
<g id="icomoon-ignore">
</g>
<path d="M13.11 29.113c7.243 0 13.113-5.871 13.113-13.113s-5.87-13.113-13.113-13.113c-7.242 0-13.113 5.871-13.113 13.113s5.871 13.113 13.113 13.113zM13.11 3.936c6.652 0 12.064 5.412 12.064 12.064s-5.412 12.064-12.064 12.064c-6.653 0-12.064-5.412-12.064-12.064s5.411-12.064 12.064-12.064z" fill="#000000"></path>
<path d="M13.906 21.637l0.742 0.742 6.378-6.379-6.378-6.379-0.742 0.742 5.112 5.112h-12.727v1.049h12.727z" fill="#000000"></path>
</svg>

<svg xmlns="http://www.w3.org/2000/svg" width="26" height="32"><path d="M13.11 29.113c7.243 0 13.113-5.871 13.113-13.113S20.353 2.887 13.11 2.887C5.868 2.887-.003 8.758-.003 16S5.868 29.113 13.11 29.113zm0-25.177c6.652 0 12.064 5.412 12.064 12.064S19.762 28.064 13.11 28.064C6.457 28.064 1.046 22.652 1.046 16S6.457 3.936 13.11 3.936z"/><path d="M13.906 21.637l.742.742L21.026 16l-6.378-6.379-.742.742 5.112 5.112H6.291v1.049h12.727z"/></svg>
